X:10
T:A l'image de ton amour - D218
C:S. Temple
M:2/4
L:1/8
K:C
|:z"Do"E EE|EE FG|E4-|E2 G,G,|EE EE|E2FG|D4-|D2 G,G,|F2 FF|FF GA|
F4-|F2 G,G,|F2 FF|EE DD|C4-|C2 "FIN"zC|AA AA|AA Bc|G4-|G3 C|FF FF|FF GA|
E2 F2|G2 CC|A3 A|AA Bc|G4-|G2 EE|DD D^F|AA G^F|G2 A2|B4:|
